Obsidian/apps/96/cs-screen.svg

<svg height="96" width="96" xmlns="http://www.w3.org/2000/svg" xmlns:xlink="http://www.w3.org/1999/xlink"><linearGradient id="a" gradientTransform="matrix(2.2003813 0 0 1.9166187 -3.879806 -2.017812)" gradientUnits="userSpaceOnUse" spreadMethod="reflect" stop-color="#fff" x1="15.574" x2="23.577999" y1="46.971001" y2="46.971001"><stop offset="0" stop-opacity="0"/><stop offset="1"/></linearGradient><linearGradient id="b" gradientTransform="matrix(1.88485 0 0 1.9171938 -627.06438 -91.724999)" gradientUnits="userSpaceOnUse" x1="361.10999" x2="361.10999" y1="87.050003" y2="94.396004"><stop offset="0" stop-color="#787878"/><stop offset=".35047" stop-color="#bebebe"/><stop offset=".49418" stop-color="#c8c8c8"/><stop offset=".58907" stop-color="#e6e6e6"/><stop offset="1" stop-color="#8c8c8c"/></linearGradient><linearGradient id="c" gradientTransform="matrix(1.8916063 0 0 1.9169062 -69.278437 6.062519)" gradientUnits="userSpaceOnUse" x1="61.969002" x2="61.969002" y1="35.944" y2="43.377998"><stop offset="0" stop-color="#464646"/><stop offset=".35047" stop-color="#8c8c8c"/><stop offset=".50989" stop-color="#969696"/><stop offset=".61998" stop-color="#aaa"/><stop offset="1" stop-color="#646464"/></linearGradient><radialGradient id="d" cx="6.7027" cy="73.615997" gradientTransform="matrix(3.7122 0 0 .79546938 23.118313 29.690563)" gradientUnits="userSpaceOnUse" r="7.2284"><stop offset="0"/><stop offset="1" stop-opacity="0"/></radialGradient><radialGradient id="e" cx="48" cy="-15.894132" gradientTransform="matrix(.00572927 -1.2418812 1.5649009 .00584638 72.772862 128.86221)" gradientUnits="userSpaceOnUse" r="35.9375"><stop offset="0" stop-color="#55a6eb"/><stop offset="1" stop-color="#1754c4"/></radialGradient><linearGradient id="f" gradientUnits="userSpaceOnUse" x1="72.23179147563" x2="72.23179147563" y1="14.19569391375" y2="60.98285428596"><stop offset="0" stop-color="#fff" stop-opacity=".616858"/><stop offset="1" stop-color="#fff" stop-opacity="0"/></linearGradient><linearGradient id="g" gradientUnits="userSpaceOnUse" x1="74.84563444219" x2="74.84563444219" y1="14.19569391375" y2="66.33629890325"><stop offset="0" stop-color="#fff"/><stop offset="1" stop-color="#fff" stop-opacity="0"/></linearGradient><g stroke-width="1.4375"><path d="m74.833813 88.25c0 3.175581-12.013763 5.75-26.833813 5.75-14.819187 0-26.833813-2.574419-26.833813-5.75s12.013763-5.75 26.833813-5.75c14.819187 0 26.833813 2.574419 26.833813 5.75z" fill="url(#d)" opacity=".3"/><path d="m36.385 73.6335s.26818 8.161838-1.069385 10.064225c-1.337565 1.902388-3.999125 1.924525-3.999125 1.924525-1.707894.199856-1.721981 3.826194 0 3.826194h33.36725c1.721981 0 1.708181-3.628825 0-3.826194 0 0-2.661387-.02219-3.998981-1.924525-1.337551-1.902388-1.069529-10.064225-1.069529-10.064225h-23.23z" fill="url(#b)" stroke="url(#c)" stroke-dashoffset=".5" stroke-linecap="round" stroke-linejoin="round"/><path d="m31.488875 88.009938h33.023688" fill="none" stroke="url(#a)" stroke-linecap="square"/><rect fill="#1a1a1a" height="63.25" rx="2.0125" ry="1.916619" stroke="#000" stroke-dashoffset=".5" stroke-linecap="round" stroke-linejoin="round" width="90.5625" x="2.71875" y="10.384937"/></g><path d="m88.80065 68.924454v-54.819908h-81.2480024v54.819908z" fill="url(#e)"/><path d="m57.8102 14.195694 21.446395 62.057656h.973453l-21.446395-62.057656z" fill="url(#g)" fill-rule="evenodd" opacity=".5"/><path d="m57.8102 14.195694 21.446395 62.057656h9.065284c.524502 0 .851772-.327272.851772-.851772v-60.354112c0-.524502-.327268-.851772-.851772-.851772z" fill="url(#f)" fill-rule="evenodd" opacity=".7"/></svg>

<?xml version="1.0" encoding="UTF-8" standalone="no"?>
<svg
   xmlns:dc="http://purl.org/dc/elements/1.1/"
   xmlns:cc="http://creativecommons.org/ns#"
   xmlns:rdf="http://www.w3.org/1999/02/22-rdf-syntax-ns#"
   xmlns:svg="http://www.w3.org/2000/svg"
   xmlns="http://www.w3.org/2000/svg"
   xmlns:xlink="http://www.w3.org/1999/xlink"
   id="svg2"
   version="1.1"
   width="96"
   height="96">
  <metadata
     id="metadata62">
    <rdf:RDF>
      <cc:Work
         rdf:about="">
        <dc:format>image/svg+xml</dc:format>
        <dc:type
           rdf:resource="http://purl.org/dc/dcmitype/StillImage" />
        <dc:title></dc:title>
      </cc:Work>
    </rdf:RDF>
  </metadata>
  <defs
     id="defs4">
    <linearGradient
       id="linearGradient1220">
      <stop
         id="stop1216"
         style="stop-color:#ffffff;stop-opacity:0.61685824"
         offset="0" />
      <stop
         id="stop1218"
         style="stop-color:#ffffff;stop-opacity:0"
         offset="1" />
    </linearGradient>
    <linearGradient
       x1="15.574"
       y1="46.971001"
       gradientTransform="matrix(2.2003813,0,0,1.9166187,-3.8798062,-2.017812)"
       x2="23.577999"
       gradientUnits="userSpaceOnUse"
       spreadMethod="reflect"
       y2="46.971001"
       stop-color="#fff"
       id="g">
      <stop
         id="stop7"
         offset="0"
         stop-opacity="0" />
      <stop
         id="stop9"
         offset="1" />
    </linearGradient>
    <linearGradient
       x1="361.10999"
       y1="87.050003"
       gradientTransform="matrix(1.88485,0,0,1.9171938,-627.06438,-91.724999)"
       x2="361.10999"
       gradientUnits="userSpaceOnUse"
       y2="94.396004"
       id="h">
      <stop
         id="stop12"
         offset="0"
         stop-color="#787878" />
      <stop
         id="stop14"
         offset=".35047"
         stop-color="#bebebe" />
      <stop
         id="stop16"
         offset=".49418"
         stop-color="#c8c8c8" />
      <stop
         id="stop18"
         offset=".58907"
         stop-color="#e6e6e6" />
      <stop
         id="stop20"
         offset="1"
         stop-color="#8c8c8c" />
    </linearGradient>
    <linearGradient
       x1="61.969002"
       y1="35.944"
       gradientTransform="matrix(1.8916063,0,0,1.9169062,-69.278437,6.0625192)"
       x2="61.969002"
       gradientUnits="userSpaceOnUse"
       y2="43.377998"
       id="i">
      <stop
         id="stop23"
         offset="0"
         stop-color="#464646" />
      <stop
         id="stop25"
         offset=".35047"
         stop-color="#8c8c8c" />
      <stop
         id="stop27"
         offset=".50989"
         stop-color="#969696" />
      <stop
         id="stop29"
         offset=".61998"
         stop-color="#aaa" />
      <stop
         id="stop31"
         offset="1"
         stop-color="#646464" />
    </linearGradient>
    <radialGradient
       r="7.2284002"
       gradientTransform="matrix(3.7122,0,0,0.79546938,23.118313,29.690563)"
       cx="6.7027001"
       cy="73.615997"
       gradientUnits="userSpaceOnUse"
       id="j">
      <stop
         id="stop34"
         offset="0" />
      <stop
         id="stop36"
         offset="1"
         stop-opacity="0" />
    </radialGradient>
    <linearGradient
       x1="12.938"
       y1="8.4375"
       gradientTransform="matrix(1.4762,0,0,1.8,-3.4286,-0.4)"
       x2="15.25"
       gradientUnits="userSpaceOnUse"
       y2="19.812"
       stop-color="#fff"
       id="f">
      <stop
         id="stop39"
         offset="0"
         stop-opacity=".27451" />
      <stop
         id="stop41"
         offset="1"
         stop-opacity="0" />
    </linearGradient>
    <radialGradient
       r="21"
       gradientTransform="matrix(1.889,0.026417,-0.017588,1.4767,-7.1008,8.7917)"
       cx="12.244"
       cy="4.8631001"
       gradientUnits="userSpaceOnUse"
       id="b">
      <stop
         id="stop44"
         offset="0"
         stop-color="#3c3c3c" />
      <stop
         id="stop46"
         offset="1"
         stop-color="#1e1e1e" />
    </radialGradient>
    <radialGradient
       gradientTransform="matrix(-2.297362e-8,-1.0910392,1.7642485,0,-32.522179,59.525191)"
       gradientUnits="userSpaceOnUse"
       xlink:href="#linearGradient2867-449-88-871-390-598-476-591-434-148-895-534-212-357-729"
       id="radialGradient3322"
       fy="-2.0644982"
       fx="26.616697"
       r="23"
       cy="-2.0644982"
       cx="26.616697" />
    <linearGradient
       id="linearGradient2867-449-88-871-390-598-476-591-434-148-895-534-212-357-729">
      <stop
         offset="0"
         style="stop-color:#c5f2ac;stop-opacity:1"
         id="stop8022" />
      <stop
         offset="1"
         style="stop-color:#63a851;stop-opacity:1"
         id="stop8028" />
    </linearGradient>
    <linearGradient
       x1="12.938"
       y1="8.4375"
       gradientTransform="matrix(1.3457313,0,0,1.0945439,-0.17436787,3.803926)"
       x2="15.25"
       gradientUnits="userSpaceOnUse"
       y2="19.812"
       stop-color="#fff"
       id="f-8">
      <stop
         style="stop-color:#ffffff;stop-opacity:0.41795665"
         id="stop39-4"
         offset="0"
         stop-opacity=".27451" />
      <stop
         style="stop-color:#ffffff;stop-opacity:0.14551084"
         id="stop41-5"
         offset="1"
         stop-opacity="0" />
    </linearGradient>
    <radialGradient
       gradientTransform="matrix(0.00572927,-1.2418812,1.5649009,0.00584638,72.772862,128.86221)"
       gradientUnits="userSpaceOnUse"
       xlink:href="#linearGradient3175"
       id="radialGradient3465"
       fy="-15.894132"
       fx="48"
       r="35.9375"
       cy="-15.894132"
       cx="48" />
    <linearGradient
       id="linearGradient3175">
      <stop
         offset="0"
         style="stop-color:#55a6eb;stop-opacity:1"
         id="stop3177" />
      <stop
         offset="1"
         style="stop-color:#1754c4;stop-opacity:1"
         id="stop3179" />
    </linearGradient>
    <linearGradient
       gradientUnits="userSpaceOnUse"
       xlink:href="#linearGradient3737"
       id="linearGradient4151"
       y2="87.868492"
       x2="68.517296"
       y1="9.0625"
       x1="68.517296"
       gradientTransform="matrix(0.67718497,0,0,0.67718497,6.552391,-3.7686466)" />
    <linearGradient
       id="linearGradient3737">
      <stop
         offset="0"
         style="stop-color:#ffffff;stop-opacity:1"
         id="stop3739" />
      <stop
         offset="1"
         style="stop-color:#ffffff;stop-opacity:0"
         id="stop3741" />
    </linearGradient>
    <linearGradient
       gradientTransform="matrix(0.97345339,0,0,0.97345339,-66.457213,-1.5012421)"
       gradientUnits="userSpaceOnUse"
       xlink:href="#linearGradient1220"
       id="linearGradient4126"
       y2="64.188072"
       x2="142.47113"
       y1="16.125"
       x1="142.47113" />
    <linearGradient
       gradientUnits="userSpaceOnUse"
       xlink:href="#linearGradient3737"
       id="linearGradient2675"
       y2="69.687508"
       x2="65.15625"
       y1="16.125"
       x1="65.15625"
       gradientTransform="matrix(0.97345339,0,0,0.97345339,11.419062,-1.5012421)" />
  </defs>
  <path
     style="opacity:0.3;fill:url(#j);stroke-width:1.4375"
     id="path48"
     d="M 74.833813,88.25 C 74.833813,91.425581 62.82005,94 48,94 33.180813,94 21.166187,91.425581 21.166187,88.25 21.166187,85.074419 33.17995,82.5 48,82.5 c 14.819187,0 26.833813,2.574419 26.833813,5.75 z" />
  <path
     id="path50"
     d="m 36.385,73.6335 c 0,0 0.26818,8.161838 -1.069385,10.064225 -1.337565,1.902388 -3.999125,1.924525 -3.999125,1.924525 -1.707894,0.199856 -1.721981,3.826194 0,3.826194 h 33.36725 c 1.721981,0 1.708181,-3.628825 0,-3.826194 0,0 -2.661387,-0.02219 -3.998981,-1.924525 C 59.347208,81.795337 59.61523,73.6335 59.61523,73.6335 h -23.23 v 0 z"
     style="fill:url(#h);stroke:url(#i);stroke-width:1.4375;stroke-linecap:round;stroke-linejoin:round;stroke-dashoffset:0.5;enable-background:new" />
  <path
     style="fill:none;stroke:url(#g);stroke-width:1.4375px;stroke-linecap:square"
     id="path52"
     d="M 31.488875,88.009938 H 64.512563" />
  <rect
     style="fill:#1a1a1a;stroke:#000000;stroke-width:1.4375;stroke-linecap:round;stroke-linejoin:round;stroke-dashoffset:0.5"
     id="rect54"
     x="2.71875"
     y="10.384937"
     width="90.5625"
     height="63.25"
     ry="1.9166187"
     rx="2.0125" />
  <path
     style="fill:url(#radialGradient3465);fill-opacity:1;fill-rule:nonzero;stroke:none;stroke-width:1.07248926"
     id="path3215"
     d="M 88.80065,68.924454 V 14.104546 H 7.5526476 v 54.819908 z" />
  <path
     style="display:inline;opacity:0.5;fill:url(#linearGradient2675);fill-opacity:1;fill-rule:evenodd;stroke:none;stroke-width:0.97345346"
     id="path2669"
     d="M 57.8102,14.195694 79.256595,76.25335 h 0.973453 L 58.783653,14.195694 Z" />
  <path
     style="display:inline;opacity:0.7;fill:url(#linearGradient4126);fill-opacity:1;fill-rule:evenodd;stroke:none;stroke-width:0.97345346"
     id="path3664"
     d="M 57.8102,14.195694 79.256595,76.25335 h 9.065284 c 0.524502,0 0.851772,-0.327272 0.851772,-0.851772 V 15.047466 c 0,-0.524502 -0.327268,-0.851772 -0.851772,-0.851772 z" />
</svg>
